X:80
T:Bedfordfhire March ThFife.80, The
B:Thompson, C. & Thompson, S., 'The Compleat Tutor for the Fife', London, c.1765-1780.
S:Digitised by National Library of Scotland at: https://archive.org/details/nlsmusic
Z:vmp Roger Hare, 2019.
M:C
L:1/8
Q:1/4=100
K:G
N:The brackets delimiting some of those slurs may not put the slurs in quite the right
N:place, but this is the best ABC can do?
|: d2 d>d d2 c2 | B2 B>B B2 A2 | (G3 A/B/) (A3 B/c/) | B2 B>B B2 A>B |
c2 B2 d2 cB | (c3 d/e/ d2) c2 | ((3BAB) ((3cBA) G2 !trill!A2 | G>GG>G G4 :|
|: d2 A>A A2 B2 | A>GA>B A2 B2 | c2 B2 A2 G2 | A2 A>A A2 B>c |
d2 Bc d2 ec | d2 Bc d2 ec | d>Bc>A ((3BAG) ((3dcB) | !trill!B2 A>A A2 D2 |
G2 ((3GAB) A2 ((3ABc) | B2 ((3Bcd) c2 ((3cde) | ((3dgf) ((3gdc) B2 !trill!A2 | G2 G>G G4 :|

